X: 801
T:Rorngly & brenom Fewtles.
Z:id:hn-jig-14
M:6/8
K:G
G2G ABA|~G3 EDF|EED DB,G,|~E3 DED|B,D


*****************************


12200 4 1.268602 

<startothem Halsty parime.
Z:id:hn-jig-2
M:6/8
K:G
deA ~a3 | dBA ged |
eAA A2G | A2G AFD | ~F3 dFA | GFG 


*****************************


12300 4 1.1670718 

<starthuttiomQZB|cBAG FA~B2|cBA BAG|F2A DEF|GEE cBA|ceA A2B:|
|:e2f a2e|age dcB|Ace ~a3|gbg agf|efe dBB|A


*****************************


12400 4 0.7437767 

<start>
